source/img/team-twitter-tablet.svg

<svg width="11" height="7" viewBox="0 0 11 7" fill="none" xmlns="http://www.w3.org/2000/svg">
<path d="M9.53655 3.13719C10.0776 3.09255 10.4447 2.84656 10.5859 2.5128C10.3907 2.6327 9.78484 2.76342 9.45022 2.63893C9.43383 2.56031 9.4155 2.48563 9.39752 2.41821C9.14255 1.48198 8.26956 0.727724 7.35485 0.818842C7.42886 0.788962 7.50392 0.761143 7.57875 0.736168C7.67944 0.700106 8.27017 0.603993 8.17715 0.395482C8.09875 0.212081 7.377 0.534086 7.24111 0.576173C7.4205 0.508708 7.71718 0.39266 7.74896 0.186523C7.47413 0.224221 7.20433 0.354156 6.99586 0.54309C7.07112 0.462074 7.12822 0.36334 7.14034 0.25708C6.4073 0.725372 5.9791 1.66948 5.63256 2.5853C5.36046 2.3216 5.11928 2.11394 4.90293 1.99863C4.29598 1.67316 3.57027 1.33357 2.43108 0.910677C2.39611 1.28758 2.61748 1.78873 3.25536 2.12201C3.11716 2.1035 2.86443 2.14479 2.6623 2.19319C2.74462 2.62497 3.01345 2.98071 3.74125 3.15273C3.40864 3.17468 3.23675 3.25037 3.08096 3.4135C3.23245 3.7138 3.6021 4.06723 4.26707 3.99468C3.52776 4.31333 3.96562 4.90342 4.56719 4.81542C3.54095 5.8754 1.92297 5.7975 0.993881 4.91093C3.41968 8.21637 8.69282 6.86576 9.47865 3.68199C10.0674 3.68701 10.4135 3.47805 10.6281 3.24768C10.2889 3.30525 9.79725 3.24575 9.53655 3.13719Z" fill="#8B7EAC" fill-opacity="0.65"/>
</svg>

<svg width="11" height="7" fill="none" xmlns="http://www.w3.org/2000/svg"><path d="M9.537 3.137c.54-.044.908-.29 1.049-.624-.195.12-.801.25-1.136.126a4.134 4.134 0 00-.052-.22C9.143 1.481 8.27.727 7.355.818c.074-.03.149-.058.224-.083.1-.036.691-.132.598-.34-.078-.184-.8.138-.936.18.18-.067.476-.183.508-.39a1.433 1.433 0 00-.753.357.518.518 0 00.144-.286C6.407.725 5.98 1.67 5.633 2.585c-.273-.263-.514-.471-.73-.586C4.296 1.673 3.57 1.334 2.43.91c-.035.377.186.878.824 1.211-.138-.018-.39.023-.593.071.083.432.351.788 1.08.96-.333.022-.505.097-.661.26.151.3.521.654 1.186.582-.74.318-.301.908.3.82a2.555 2.555 0 01-3.573.096c2.427 3.306 7.7 1.956 8.486-1.228.588.005.935-.204 1.15-.434-.34.057-.832-.002-1.092-.11z" fill="#8B7EAC" fill-opacity=".65"/></svg>
